!!!OTL: 176. Skotshne
!!!Genre:	Skotshne
!!!Mode:	Major
!!!Listening/dance:	dance
!!!One_Mode:	yes
**kern
*I"P1
*clefG2
*k[f#]
*G:
*M2/4
*>A
8d
=1
8dL
8g
8g
8gJ
=2
4.g
8d
=3
8gL
8aJ
4b
=4
24aLL
24b
24aJJ
4g
8b
=5
8b
(8qdd/
4cc)
8b
=6
(8bL
8a)
(8a
8gJ)
=7
2dd
=8
(8qcc#X/
4dd)
8r
8d
=9
8dL
8g
8g
8gJ
=10
4.g
8d
=11
8gL
8aJ
4b
=12
24aLL
24b
24aJJ
4g
8b
=13
8b
(8qdd/
4cc)
8b
=14
8bL
8g
8a
8f#J
=15
[2g
=
4g]
8r
=16:|!|:
8cc#X
=17
*>B
8cc#XL
8ddJ
(8qee/
8ddL)
8ddJ
=18
4.gg
8dd
=19
(8ddL
8ccnJ)
((8qdd/
8ccL)
8bJ)
=20
*^
8ccL	4b
8bJ	.
8aL	8aL
8gJ	8gJ
*v	*v
=21
8b
(8qdd/
4cc)
8b
=22
(8bL
8aJ)
(8aL
8gJ)
=23
2dd
=24
4dd
8r
8cc#X
=25
8cc#X
(8qee/
8ddJ)
8ddL
8ddJ
=26
4.gg
8dd
=27
(8ddL
8ccnJ)
((8qdd/
8ccL)
8bJ)
=28
4b
8aL
8gJ
=29
8b
(8qdd/
4cc)
8cc
=30
(8qcc/
8bL)
8g
(8qb/
8a)
8f#J
=31
[2g
=32
4g]
4r
==
*-
